icons/node.svg

<svg width="16" height="16" viewBox="0 0 16 16" fill="none" xmlns="http://www.w3.org/2000/svg">
<path d="M6.89062 1.73926C7.56234 1.29155 8.43766 1.29155 9.10938 1.73926L13.1094 4.40625C13.6657 4.77717 14 5.40165 14 6.07031V9.92968L13.9961 10.0547C13.9572 10.6755 13.6309 11.2461 13.1094 11.5937L9.10938 14.2607L8.98145 14.3389C8.3726 14.682 7.55167 14.5525 6.76367 14.1416C6.24649 13.8487 6.12217 13.7223 5.91992 13.5537C6.4619 13.3195 6.76371 13.0843 7.05469 12.7676C7.46767 13.0843 7.98138 13.2499 8.43555 12.9414L12.2773 10.3457C12.4164 10.253 12.4999 10.0968 12.5 9.92968V6.07031C12.5 5.90318 12.4164 5.74702 12.2773 5.65429L8.27734 2.9873C8.13046 2.88947 7.94469 2.87779 7.78809 2.95117L7.72266 2.9873L3.72266 5.65429C3.58362 5.74702 3.50002 5.90318 3.5 6.07031V9.92968C3.50006 10.9058 4.04852 11.2559 4.61621 11.2744C5.04988 11.2265 5.26144 11.0768 5.36816 10.959C5.51271 10.7992 5.57421 10.581 5.57422 10.3828V5.24609H7.07422V10.3828C7.07421 10.8512 6.9356 11.463 6.48047 11.9658C6.20638 12.2685 5.84739 12.4972 5.40625 12.6367C5.07758 12.7476 4.7225 12.8065 4.3623 12.79C4.34965 12.7901 4.33696 12.792 4.32422 12.792V12.7881C3.76285 12.7541 3.19193 12.5357 2.69629 12.04C2.25327 11.5969 2.00393 11.0075 2.00391 10.0547L2 9.92968V6.07031C2.00002 5.44336 2.29382 4.85519 2.78906 4.47851L2.89062 4.40625L6.89062 1.73926Z" fill="#3F9F61"/>
<path d="M9.71379 5.16015L9.98821 5.18066C10.6054 5.2544 11.0689 5.49592 11.3837 5.84668C11.7245 6.2265 11.7372 6.66237 11.7373 6.94824H10.3251C10.3251 6.97143 10.3236 6.91137 10.2675 6.84863C10.2345 6.81189 10.1233 6.70647 9.80657 6.66992L9.65813 6.65918C9.26513 6.64449 9.11595 6.74026 9.07512 6.77539C9.04107 6.80477 9.01075 6.85134 9.01067 6.94824C9.01069 7.03231 9.04077 7.11966 9.10149 7.18164C9.15215 7.23312 9.29912 7.34468 9.68547 7.34472C10.1706 7.34475 10.682 7.45513 11.0947 7.74121C11.5342 8.04609 11.8251 8.53047 11.8251 9.13672C11.8248 10.1528 10.9399 11.0292 9.68547 11.0293C8.58998 11.0292 7.51074 10.3882 7.51067 9.30957H9.01067C9.01053 9.26287 8.98784 9.29955 9.08586 9.37304C9.17988 9.44335 9.37169 9.52925 9.68547 9.52929C10.2239 9.52924 10.3247 9.21639 10.3251 9.13672C10.3251 9.08224 10.3139 9.05455 10.3066 9.04101C10.2984 9.02603 10.2809 9.00196 10.2402 8.97363C10.1494 8.9107 9.96463 8.84475 9.68547 8.84472C8.98608 8.84468 8.41964 8.62895 8.02922 8.23047C7.64963 7.8427 7.51069 7.35597 7.51067 6.94824C7.51077 6.49357 7.67539 6.00147 8.09465 5.63965C8.50768 5.28328 9.07169 5.13615 9.71379 5.16015Z" fill="#3F9F61"/>
</svg>

<svg xmlns="http://www.w3.org/2000/svg" width="16" height="16" fill="none" viewBox="0 0 16 16"><path fill="#3F9F61" d="M6.89 1.74a2 2 0 0 1 2.22 0l4 2.666A2 2 0 0 1 14 6.07v3.86l-.004.125a2 2 0 0 1-.887 1.539l-4 2.667-.128.078c-.608.343-1.43.213-2.217-.197-.518-.293-.642-.42-.844-.588.542-.235.844-.47 1.135-.786.413.316.926.482 1.38.173l3.842-2.595a.5.5 0 0 0 .223-.416V6.07a.5.5 0 0 0-.223-.416l-4-2.667a.5.5 0 0 0-.489-.036l-.065.036-4 2.667a.5.5 0 0 0-.223.416v3.86c0 .976.549 1.326 1.116 1.344.434-.047.645-.197.752-.315a.87.87 0 0 0 .206-.576V5.246h1.5v5.137a2.36 2.36 0 0 1-.594 1.583 2.4 2.4 0 0 1-1.074.67c-.328.112-.683.17-1.044.154l-.038.002v-.004a2.47 2.47 0 0 1-1.628-.748c-.443-.443-.692-1.032-.692-1.985L2 9.93V6.07a2 2 0 0 1 .79-1.591l.1-.073z"/><path fill="#3F9F61" d="m9.714 5.16.274.02c.617.074 1.08.316 1.396.667.34.38.353.815.353 1.101h-1.412c0 .023-.001-.037-.057-.1-.034-.036-.145-.142-.461-.178l-.149-.01c-.393-.016-.542.08-.583.115-.034.03-.064.076-.064.173 0 .084.03.172.09.234.051.051.198.163.584.163.486 0 .997.11 1.41.396.44.305.73.79.73 1.396 0 1.016-.885 1.892-2.14 1.892-1.095 0-2.174-.64-2.174-1.72h1.5c0-.046-.023-.01.075.064.094.07.286.156.6.156.538 0 .639-.313.64-.392a.2.2 0 0 0-.02-.096.2.2 0 0 0-.066-.067c-.09-.063-.275-.13-.555-.13-.699 0-1.265-.215-1.656-.614a1.83 1.83 0 0 1-.518-1.282c0-.454.164-.947.584-1.308.413-.357.977-.504 1.619-.48"/></svg>
